X:1
T:Missa Surge Propera (4: Et in terra pax hominibus voluntatis)
T:Lupus Hellinck
T:Leiden Choirbooks - Codex F - folio 8 & 9
%%score 1 2 3 4
L:1/8
Q:1/4=96
M:4/4
K:C
V:1 treble nm="Superius" snm="S."
V:2 treble nm="Contra" snm="C."
V:3 treble-8 nm="Tenor" snm="T."
V:4 bass nm="Bassus" snm="B."
V:1
"^Andante" d6 d2 | c2 c2 f4- | f2 d2 e2 e2 | A4 z2 A2- | A2 G2 A3 B | c2 d2 B4 | A8- | A4 A4- | %8
w: Et in|ter- ra pax|* ho- mi- ni-|bus bo-|* nae vo- lun-|ta- tis, _|_|* bo|
 A2 B2 c4 | d4 c3 d | e2 f2 d4 | c8 | z2 A2 d2 d2 | c4 z2 f2 | e2 c2 d2 e2 | A2 AB cd e2- | %16
w: * nae vo-|lun _ ta-|tis _ _|_|Lau- da- mus|te Be-|ne- di- ci- mus|te * a- do- ra- mus|
 e2 dc B4 | A2 f4 e2 | c2 d4 e2 | A2 d4 ^c2 | d8- | d4 z2 d2- | d2 c2 A2 c2- | c2 BA G2 A2- | %24
w: _ _ te _|glo- ri _|fi- ca- mus|_ _ te|_|* Gra-|* a- ti- as|_ a- gi- mus ti-|
 A2 B2 c4 | B2 c2 cB A2- | A2 ^G2 A4 | z8 | z8 | z8 | z2 A4 A2 | A4 G2 E2 |"^folio 9" F4 E4 | %33
w: * bi _|_ _ _ _ _|||||Do- mi-|ne de _|_ us|
 z2 A2 c3 d | e2 f2 e4 | z2 c4 B2 | c2 d2 A2 c2- | c2 BA B4 | B4 A4 | A8 | A4 A2 A2 | A2 FG AB c2 | %42
w: Rex _ ce-|les- tis _||||||de- us pa-|ter _ om- ni- po- tens|
 B2 A4 ^G2 | A8 | z2 e4 c2 | d2 e2 A2 B2 | c4 B4 | z2 c4 A2 | B2 c2 A4 | z2 f4 e2 | f2 d2 e4 | %51
w: _ _ _||Do- mi-|ne fi- li _|_ _|U- ni-|ge- ni- te|U- ni-|ge- ni- te|
 A4 z4 | z8 | z8 | z4 z2 A2 | c3 d e2 f2 | g2 f4 ed | c2 d4 ^c2 | d8- | d8 |] %60
w: _|||Jhe-|* su _ _|_ _ _ _|Chris- te _|_||
V:2
 z8 | z8 | z8 | D6 D2 | C2 C2 F4- | F2 D2 E2 E2 | A,4 z2 D2- | D2 ^C2 D3 E | F2 G2 E4 | %9
w: |||Et in|ter- ra pax|* ho- mi- ni-|bus bo-|* nae vo- lun-|ta _ _|
 D3 E F2 E2- | E2 D2 F2 G2 | A6 A/G/F/E/ | F4 z2 D2 | E2 F2 FGAF | G2 A2 G2 E2 | F2 D2 C3 D | %16
w: _ _ _ _||* * tis _ _|_ Lau-|da- mus _ _ te _|Be- ne- di- ci-|mus _ te _|
 EA, A4 ^G2 | A2 A2 F2 G2 | A2 F2 z4 | z2 _B4 A2 | F2 G2 A4 | D8 | z8 | z8 | z8 | z8 | z4 z2 A2- | %27
w: _ _ A- do-|ra- mus _ _|_ te|glo- ri-|fi- ca- mus|te|||||prop|
 A2 G2 E2 G2- | G2 FE D2 E2 | C2 D2 D2 E2 | F4 E2 F2- | FE D4 C2 | D2 A,2 C3 D | E2 F2 E2 A,2 | %34
w: _ _ ter _|_ mag _ na _|_ glo ri- am|_ _ _|* * tu _|Do- mi- ne _|_ _ de- us|
 C3 D E3 F | G2 A4 G2 | A2 F3 E/D/ E2 | A,2 A4 G2 | F2 E3 DCB, | A,4 C3 D | E2 F2 E4 | z2 D4 C2 | %42
w: _ _ _ _|||* Rex _|_ ce- les- tis _|_ de- us|pa- ter _|om- ni-|
 F4 E4- | E4 z2 A2- | A2 GF G2 A2 | D2 A2 c2 B2- | BA A4 G2 | A8 | z2 E2 F2 E2- | E2 D3 C/B,/ C2 | %50
w: po- tens|* Do|_ _ mi- ne fi-|li u- ni- ge-|* ni- te _|_|u _ _|_ ni- ge- ni- te|
 D4 A4- | A2 A2 A2 G2 | F4 E2 A,2 | C3 D E2 A,2 | C3 D E2 F2 | E2 A,2 C3 D | E2 F3 E A2- | %57
w: _ u-|* ni- ge- ni-|te _ _|_ _ _ _||* * * Jhe-|su _ _ _|
 A2 G2 A4 | A8- | A8 |] %60
w: _ Chris- te|_||
V:3
 z8 | z4 d4- | d2 d2 c2 c2 | f6 d2 | e2 e2 d3 c/B/ | A2 a4 g2 | f2 e2 f4 | e4 z2 d2- | %8
w: |Et|* in ter- ra|pax _|ho- mi- ni- bus _|_ _ _||* bo-|
 d2 G2 A2 c2 | B4 A2 a2 | g2 f4 ed | e4 z2 A2 | d4 B4 | A4 z4 | z8 | z2 f4 e2 | c2 d2 e4 | %17
w: * nae vo- lun-|ta- tis _|_ _ _ _|* Lau-|da- mus|te||A- do-|ra- mus- te|
 A2 d4 c2 | f3 e d2 c2 | d4 e4 | d8 | z2 g4 f2 | d2 f4 ed | c2 d2 e2 c2 | d3 c ABcd | e2 A2 c2 d2 | %26
w: _ glo- ri-|fi- ca- mus _|_ _|te|Gra- ti-|as a- gi- mus|_ _ _ _|||
 B4 A4 | z8 | z8 | z8 | z8 | z8 | z8 | z8 | z2 A2 c3 d | e2 f2 e4 | z2 d4 c2 | f4 e4 | z2 A2 c3 d | %39
w: ti- bi||||||||Do- mi- ne|de- us _|Rex- ce-|les- tis|de- us _|
 e2 f2 e4 | z2 d4 c2 | f6 e2 | d3 c B4 | A8- | A4 z4 | z4 z2 e2- | e2 c2 d2 e2 | A2 e2 f4 | %48
w: pa- * ter|om- ni-|po tens|_ _ _|||Do-|* mi- ne _|_ _ fi-|
 e4 z2 a2 | f3 g a4 | f4 e4 | f6 e2- | e2 d2 e4 | z2 A2 c3 d | e2 f2 g2 a2- | a2 gf e2 A2 | %56
w: li U-|ni- ge- ni-|te _|_ _||Jhe- su _|_ _ _ _||
 c2 d2 A2 f2- | f2 ed e4 | d8- | d8 |] %60
w: * * * Chris|_ te _ _|_||
V:4
 z8 | z8 | z8 | z8 | z8 | z8 | z8 | z8 | z4 z2 A,2- | A,2 G,2 A,3 B, | C2 D2 B,4 | A,8 | z8 | %13
w: ||||||||Bon-|* ae vo- lun-|ta- tis _|_||
 z2 A,2 D2 D2 | C2 A,2 B,2 C2 | D2 D2 A,4 | z8 | z8 | z2 _B,4 A,2 | F,2 G,4 A,2 | D,2 G,4 F,2 | %21
w: Lau- da- mus|te be- ne- di-|ci- mus te|||glo- ri-|fi- ca- mus|_ _ _|
 G,4 D,4 | z8 | z8 | z8 | z8 | z2 D4 C2 | A,2 C4 B,A, | G,2 A,2 F,2 G,2 | A,2 F,2 G,3 F, | %30
w: * te|||||prop _|ter _ mag _|nam _ glo- ri-|am _ _ _|
 D,F,F,G, A,2 D,2 | F,4 E,4 | D,4 A,3 B, | C2 D2 A,4- | A,2 D,2 A,4 | z8 | z8 | z8 | z4 A,4- | %39
w: _ _ _ _ tu _|_ _|Do- mi- ne|_ de- us|_ _ _||||de-|
 A,2 D,2 A,3 B, | C2 D2 A,4 | F,2 _B,2 A,4 | D,4 E,4 | z8 | z8 | z8 | z8 | z2 A,4 F,2 | %48
w: * us pa- ter|_ _ _|om- ni- po-|tens _|||||Do- mi-|
 G,2 A,2 D,2 A,2 | _B,4 A,4 | z2 D4 C2 | D2 D,2 F,2 G,2 | A,2 B,2 C4 | B,2 C3 B, A,2- | %54
w: ne fi- li _|_ _|Do- mi-|ne fi- li _|_ u- ni-|ge- ni- te _|
 A,2 G,F, E,2 D,2 | A,6 F,2 | E,2 D,2 F,3 G, | A,2 B,2 A,4 | D,8- | D,8 |] %60
w: _ _ _ _ _||* * Jhe- su|Chris _ te|_||

